lib/functional/design/paint-brush-household.svg

<svg xmlns="http://www.w3.org/2000/svg" fill="none" stroke="currentColor" aria-hidden="true" viewBox="0 0 32 32"><g id="Icon-PaintBrushHousehold"><g clip-path="url(#clip0_8_859)"><g id="size=md (32px)"><g id="PaintBrushHousehold"><path id="Vector" stroke-linecap="round" stroke-linejoin="round" stroke-width="2" d="M9 13L19 23"/><path id="Vector_2" stroke-linecap="round" stroke-linejoin="round" stroke-width="2" d="M12.725 22.925L8.82495 26.825"/><path id="Vector_3" stroke-linecap="round" stroke-linejoin="round" stroke-width="2" d="M9.22495 19.425L5.32495 23.325"/><path id="Vector_4" stroke-linecap="round" stroke-linejoin="round" stroke-width="2" d="M17.0125 11.525L23.875 3.875C24.4386 3.31142 25.203 2.9948 26 2.9948C26.797 2.9948 27.5614 3.31142 28.125 3.875C28.6886 4.43859 29.0052 5.20297 29.0052 6C29.0052 6.79703 28.6886 7.56142 28.125 8.125L20.475 14.9875C20.3742 15.0784 20.293 15.1888 20.2362 15.312C20.1794 15.4353 20.1484 15.5688 20.1448 15.7044C20.1413 15.8401 20.1655 15.975 20.2158 16.1011C20.2661 16.2271 20.3415 16.3416 20.4375 16.4375L21.5875 17.5875C21.9585 17.964 22.1665 18.4714 22.1665 19C22.1665 19.5286 21.9585 20.036 21.5875 20.4125L12 30L2 20L11.5875 10.4125C11.964 10.0415 12.4714 9.83353 13 9.83353C13.5286 9.83353 14.036 10.0415 14.4125 10.4125L15.5625 11.5625C15.6584 11.6585 15.7729 11.7339 15.8989 11.7842C16.025 11.8345 16.1599 11.8587 16.2956 11.8552C16.4312 11.8516 16.5647 11.8206 16.688 11.7638C16.8112 11.707 16.9217 11.6258 17.0125 11.525V11.525Z"/></g></g></g></g><defs><clipPath id="clip0_8_859"><rect width="32" height="32" fill="white" rx="5"/></clipPath></defs></svg>

<svg xmlns="http://www.w3.org/2000/svg" fill="none" stroke="currentColor" aria-hidden="true" viewBox="0 0 32 32"><g stroke="#101828" stroke-linecap="round" stroke-linejoin="round" stroke-width="2" clip-path="url(#a)"><path d="m9 13 10 10m-6.275-.075-3.9 3.9m.4-7.4-3.9 3.9m11.687-11.8 6.863-7.65a3.005 3.005 0 0 1 4.25 4.25l-7.65 6.863a1.002 1.002 0 0 0-.038 1.45l1.15 1.15a2.012 2.012 0 0 1 0 2.825L12 30 2 20l9.588-9.588a2.012 2.012 0 0 1 2.825 0l1.15 1.15a.999.999 0 0 0 1.45-.037v0Z"/></g><defs><clipPath id="a"><rect width="32" height="32" fill="#fff" rx="5"/></clipPath></defs></svg>
